svgs/introduction/introduction1199.svg

<svg xmlns="http://www.w3.org/2000/svg" width="1199" height="450" xmlns:v="https://vecta.io/nano"><path fill="#0b0015" d="M0 0h1199v450H0z"/><path d="M649 0l-96 30 120 30-10 30-11 30-57 30-42 30 93 30-27 30-68 30 80 30 71 30-5 30-48 30 75 30 27 30H0v-30-30-30-30-30-30-30-30-30-30-30-30-30-30V0z" fill="#26003d"/><path d="M492 0l-12 30-9 30 30 30 83 30 36 30-101 30 105 30-145 30 115 30-43 30 109 30-97 30-82 30 133 30 56 30H0v-30-30-30-30-30-30-30-30-30-30-30-30-30-30V0z" fill="#2f004e"/><path d="M459 0l20 30 63 30-42 30-57 30 51 30 60 30-83 30 41 30 37 30-71 30 38 30-33 30 67 30-16 30 23 30H0v-30-30-30-30-30-30-30-30-30-30-30-30-30-30V0z" fill="#380060"/><path d="M445 0l-47 30 38 30 51 30-66 30-98 30 163 30-12 30-48 30-15 30 88 30-89 30-63 30-11 30 106 30-35 30H0v-30-30-30-30-30-30-30-30-30-30-30-30-30-30V0z" fill="#410072"/><path d="M264 0l140 30-116 30 67 30-101 30 124 30-92 30-23 30-1 30 8 30 136 30-117 30 115 30-14 30-33 30-46 30H0v-30-30-30-30-30-30-30-30-30-30-30-30-30-30V0z" fill="#490086"/><path d="M288 0l-82 30 96 30-97 30-2 30 56 30 49 30-90 30-9 30 30 30 3 30-13 30 8 30 31 30-75 30 103 30H0v-30-30-30-30-30-30-30-30-30-30-30-30-30-30V0z" fill="#51009a"/><path d="M166 0l-5 30-43 30 95 30-101 30 87 30 22 30-87 30 18 30-37 30 3 30 35 30 82 30-122 30 13 30 14 30H0v-30-30-30-30-30-30-30-30-30-30-30-30-30-30V0z" fill="#5800af"/><path d="M43 0l87 30-73 30 75 30-40 30-14 30 21 30-53 30 89 30-45 30 12 30 39 30-32 30 17 30 2 30-37 30H0v-30-30-30-30-30-30-30-30-30-30-30-30-30-30V0z" fill="#5f00c5"/></svg>

<svg id="visual" viewBox="0 0 1199 450" width="1199" height="450" xmlns="http://www.w3.org/2000/svg" xmlns:xlink="http://www.w3.org/1999/xlink" version="1.1"><rect x="0" y="0" width="1199" height="450" fill="#0B0015"></rect><path d="M649 0L553 30L673 60L663 90L652 120L595 150L553 180L646 210L619 240L551 270L631 300L702 330L697 360L649 390L724 420L751 450L0 450L0 420L0 390L0 360L0 330L0 300L0 270L0 240L0 210L0 180L0 150L0 120L0 90L0 60L0 30L0 0Z" fill="#26003d"></path><path d="M492 0L480 30L471 60L501 90L584 120L620 150L519 180L624 210L479 240L594 270L551 300L660 330L563 360L481 390L614 420L670 450L0 450L0 420L0 390L0 360L0 330L0 300L0 270L0 240L0 210L0 180L0 150L0 120L0 90L0 60L0 30L0 0Z" fill="#2f004e"></path><path d="M459 0L479 30L542 60L500 90L443 120L494 150L554 180L471 210L512 240L549 270L478 300L516 330L483 360L550 390L534 420L557 450L0 450L0 420L0 390L0 360L0 330L0 300L0 270L0 240L0 210L0 180L0 150L0 120L0 90L0 60L0 30L0 0Z" fill="#380060"></path><path d="M445 0L398 30L436 60L487 90L421 120L323 150L486 180L474 210L426 240L411 270L499 300L410 330L347 360L336 390L442 420L407 450L0 450L0 420L0 390L0 360L0 330L0 300L0 270L0 240L0 210L0 180L0 150L0 120L0 90L0 60L0 30L0 0Z" fill="#410072"></path><path d="M264 0L404 30L288 60L355 90L254 120L378 150L286 180L263 210L262 240L270 270L406 300L289 330L404 360L390 390L357 420L311 450L0 450L0 420L0 390L0 360L0 330L0 300L0 270L0 240L0 210L0 180L0 150L0 120L0 90L0 60L0 30L0 0Z" fill="#490086"></path><path d="M288 0L206 30L302 60L205 90L203 120L259 150L308 180L218 210L209 240L239 270L242 300L229 330L237 360L268 390L193 420L296 450L0 450L0 420L0 390L0 360L0 330L0 300L0 270L0 240L0 210L0 180L0 150L0 120L0 90L0 60L0 30L0 0Z" fill="#51009a"></path><path d="M166 0L161 30L118 60L213 90L112 120L199 150L221 180L134 210L152 240L115 270L118 300L153 330L235 360L113 390L126 420L140 450L0 450L0 420L0 390L0 360L0 330L0 300L0 270L0 240L0 210L0 180L0 150L0 120L0 90L0 60L0 30L0 0Z" fill="#5800af"></path><path d="M43 0L130 30L57 60L132 90L92 120L78 150L99 180L46 210L135 240L90 270L102 300L141 330L109 360L126 390L128 420L91 450L0 450L0 420L0 390L0 360L0 330L0 300L0 270L0 240L0 210L0 180L0 150L0 120L0 90L0 60L0 30L0 0Z" fill="#5f00c5"></path></svg>
